X: 145
T:Missa Ad fugam / Sanctus (version II)
N: Derived from Jos1201d.b-Missa_Ad_fugam-Sanctus-version_II.krn
C: Josquin des Prez
%%abc-version 2.0
%%abcx-abcm2ps-target-version 5.9.1 (29 Sep 2008)
%%abc-creator hum2abc beta
%%abcx-conversion-date 2019/02/12 16:15:45
%%abc-edited-by Jesse Rodin
%%abc-edited-by Jesse Rodin; Victoria Chang 2012/02/11
%%abcx-initial-encoding-date 2012/02/11/
%%humdrum-veritas 1361447104
%%humdrum-veritas-data 4020995222
%%linebreak <none>
%%barnumbers 0
L: 1/4
M: 3/1
Q: 1/2=120
%%staves [1 2 3 4]
V: 1 clef=treble
V: 2 clef=treble-8
V: 3 clef=treble-8
V: 4 clef=bass
K: F
[V:1] G8G4 | 
[V:2] G6A2B3c | 
[V:3] z12 | 
[V:4] G,8E,4 | 
[V:1] A6GFE4 | 
[V:2] A8z2A2 | 
[V:3] c8c4 | 
[V:4] F,6G,2A,4 | 
[V:1] D4z4A4 | 
[V:2] B3AF2G2D4 | 
[V:3] d6cBA4 | 
[V:4] z2D,4G,4^F,2 | 
[V:1] B4A2A4F2 | 
[V:2] z2d4c2A2B2 | 
[V:3] G4z4d4 | 
[V:4] G,4D,2F,4D,2 | 
[V:1] G4z4F2G2 | 
[V:2] (3c2G2A2B8 | 
[V:3] _e4d2d4B2 | 
[V:4] C,4B,,8 | 
[V:1] A3Bc2d4c2 | 
[V:2] A4z4z4 | 
[V:3] c4z4B2c2 | 
[V:4] F,3G,A,2B,3G,A,2 | 
[V:1] B2d3cB2A4 | 
[V:2] G4d8 | 
[V:3] d3ef2g4f2 | 
[V:4] G,2B,4G,2D,4 | 
[V:1] G4z4z4 | 
[V:2] G2e3dc4=B2 | 
[V:3] e2g3fe2d4 | 
[V:4] E,4C,2E,2F,2G,2 | 
[V:1] z12 | 
[V:2] c2g3ea3gfe | 
[V:3] c4z4z4 | 
[V:4] C,3D,E,2F,3G,A,2 | 
[V:1] z12 | 
[V:2] d3ef2g4f2 | 
[V:3] z12 | 
[V:4] B,2D3CB,2A,4 | 
[V:1] G3AB2c4B2 | 
[V:2] ecg4e2d4 | 
[V:3] z12 | 
[V:4] z4z4G,4 | 
[V:1] A2c3BA2G4 | 
[V:2] c8z2c2 | 
[V:3] c3de2f4e2 | 
[V:4] A,6F,2C4 | 
[V:1] F4z4c4 | 
[V:2] d3cA2B2F4 | 
[V:3] d2f3ed2c4 | 
[V:4] z2F,4B,4A,2 | 
[V:1] d4B2c4A2 | 
[V:2] z2d4c2A4 | 
[V:3] B4z4f4 | 
[V:4] B,4G,2A,4D,2 | 
[V:1] B4c4d4 | 
[V:2] G4z4d4 | 
[V:3] g4e2f4d2 | 
[V:4] z2G,2A,4B,4 | 
[V:1] z2G2A4B4 | 
[V:2] c2e2d4z2d2 | 
[V:3] e4f4g4 | 
[V:4] C4z4G,4 | 
[V:1] c4z2F2G4 | 
[V:2] c2A4F2c4 | 
[V:3] z2c2d4e4 | 
[V:4] A,4D,4z2C,2 | 
[V:1] A4D4z2E2 | 
[V:2] z2A2B2d2c2A2 | 
[V:3] f4z2B2c4 | 
[V:4] F,4G,4A,4 | 
[V:1] F4G4A4 | 
[V:2] z2d2B2c2A4 | 
[V:3] d4G4z2A2 | 
[V:4] z2D,2E,4F,4 | 
[V:1] z2D2E4F4 | 
[V:2] z12 | 
[V:3] B4c4d4 | 
[V:4] G,4z4z2D,2 | 
[V:1] G2B3AA4G2 | 
[V:2] z12 | 
[V:3] z2G2A4B4 | 
[V:4] E,4F,4G,4 | 
[V:1] A2G3FD2E4 | 
[V:2] A2c4d2A4 | 
[V:3] c2_e3dd4c2 | 
[V:4] z4z4z2A,2 | 
[V:1] D2A3GG4^F2 | 
[V:2] z2A3Bc2d4 | 
[V:3] d2c3BG2A4 | 
[V:4] D,2F,3G,E,2D,4 | 
[V:1] G12 ||  
[V:2] d12 ||  
[V:3] G12 ||  
[V:4] G,12 ||  
[V:1]  [K:F] [K:clef=treble][M:3/1]z12 | 
[V:2]  [K:F] [K:clef=treble-8][M:3/1]g4f2g4e2 | 
[V:3]  [K:F] [K:clef=treble-8][M:3/1]z12 | 
[V:4]  [K:F] [K:clef=bass][M:3/1]G,4A,2G,2B,2C2 | 
[V:1] z12 | 
[V:2] f2d4g3fed | 
[V:3] z12 | 
[V:4] D4z2G,2B,2C2 | 
[V:1] z12 | 
[V:2] f3ec2d4cB | 
[V:3] z12 | 
[V:4] D3CA,2B,4A,G, | 
[V:1] z12 | 
[V:2] A3Bc2d2G2d2- | 
[V:3] z12 | 
[V:4] F,4z2D,2E,2F,2 | 
[V:1] z12 | 
[V:2] dcd2e2f2g3f | 
[V:3] z12 | 
[V:4] G,3F,G,2A,2B,2C2- | 
[V:1] z12 | 
[V:2] a2a4f2e4 | 
[V:3] z12 | 
[V:4] CB,C2D2D4C2 | 
[V:1] z12 | 
[V:2] d4z2d2e2f2 | 
[V:3] z12 | 
[V:4] D2G,2D2B,2A,4 | 
[V:1] z12 | 
[V:2] g3fd2c2B4 | 
[V:3] z12 | 
[V:4] G,2B,3A,A,4G,2 | 
[V:1] z12 | 
[V:2] A2d4c2B2AG | 
[V:3] z12 | 
[V:4] A,2B,4A,2G,2F,E, | 
[V:1] z12 | 
[V:2] F4z2F2G2B2 | 
[V:3] z12 | 
[V:4] D,2D4C2B,2A,G, | 
[V:1] z12 | 
[V:2] A2d4G2A2B2 | 
[V:3] z12 | 
[V:4] F,4B,4C2D2- | 
[V:1] z12 | 
[V:2] G4F2G3ABc | 
[V:3] z12 | 
[V:4] D2G,2A,2B,2G,4 | 
[V:1] z12 | 
[V:2] A2G2d4c2d2- | 
[V:3] z12 | 
[V:4] F,2G,3A,B,CA,2G,2 | 
[V:1] z12 | 
[V:2] defge2d4G2 | 
[V:3] z12 | 
[V:4] D4C2D2G,2D2- | 
[V:1] z12 | 
[V:2] d3efga3fga | 
[V:3] z12 | 
[V:4] D2G,2D3CD2G,2 | 
[V:1] z12 | 
[V:2] b2a3gg4^f2 | 
[V:3] z12 | 
[V:4] D3CD2B,2A,4 | 
[V:1] z12 ||  
[V:2] g12 ||  
[V:3] z12 ||  
[V:4] G,12 ||  
[V:1]  [K:F] [K:clef=treble][M:3/1]D3EF2G4^F2 | 
[V:2]  [K:F] [K:clef=treble-8][M:3/1]z4z4c4 | 
[V:3]  [K:F] [K:clef=treble-8][M:3/1]z12 | 
[V:4]  [K:F] [K:clef=bass][M:3/1]B,6G,2A,4 | 
[V:1] G6A4GF | 
[V:2] d2B4AGF4 | 
[V:3] G3AB2c4=B2 | 
[V:4] G,6F,2D,4 | 
[V:1] E4z2D2F2G2 | 
[V:2] G4A2B3AG2 | 
[V:3] c6d4cB | 
[V:4] C,4z2D,4E,2 | 
[V:1] A3Bc2B2G4 | 
[V:2] F2c2A2B4G2 | 
[V:3] A4z2G2B2c2 | 
[V:4] F,6G,2_E,4 | 
[V:1] F4z4c4 | 
[V:2] A2d3cB4A2 | 
[V:3] d3_ef2_e2c4 | 
[V:4] D,2B,,2D,2_E,2F,4 | 
[V:1] d4B2c4A2 | 
[V:2] B4z4c4 | 
[V:3] B4z4f4 | 
[V:4] B,,2B,4A,2F,2A,2 | 
[V:1] B2G4A4F2 | 
[V:2] d4z4d4 | 
[V:3] g4e2f4d2 | 
[V:4] G,4z4z4 | 
[V:1] G2E4D2F2G2 | 
[V:2] c3de2f2d4 | 
[V:3] e2c4d4B2 | 
[V:4] z2A,4D,4G,2 | 
[V:1] A4z4G4 | 
[V:2] z2c2A2B2G4 | 
[V:3] c2A4G2B2c2 | 
[V:4] F,3E,F,2G,2E,4 | 
[V:1] F2A3GF2E4 | 
[V:2] A8z2c2 | 
[V:3] d4z4c4 | 
[V:4] D,3E,F,2D,2A,4 | 
[V:1] D2B3AG4^F2 | 
[V:2] d2G2B3cd4 | 
[V:3] B2d3cB2A4 | 
[V:4] B,4G,4D,4 | 
[V:1] G12 ||  
[V:2] d12 ||  
[V:3] G12 ||  
[V:4] G,12 ||  
[V:1]  [K:F] [K:clef=treble][M:2/1]d8 | 
[V:2]  [K:F] [K:clef=treble-8][M:2/1]z8 | 
[V:3]  [K:F] [K:clef=treble-8][M:2/1]z8 | 
[V:4]  [K:F] [K:clef=bass][M:2/1]z8 | 
[V:1] c4d4- | 
[V:2] z8 | 
[V:3] z8 | 
[V:4] z8 | 
[V:1] d4B4 | 
[V:2] z8 | 
[V:3] z8 | 
[V:4] z8 | 
[V:1] B4G4 | 
[V:2] z8 | 
[V:3] g8 | 
[V:4] z8 | 
[V:1] A4B4 | 
[V:2] z8 | 
[V:3] f4g4- | 
[V:4] z8 | 
[V:1] G8 | 
[V:2] z8 | 
[V:3] g4e4 | 
[V:4] z8 | 
[V:1] c6B2 | 
[V:2] z8 | 
[V:3] e4c4 | 
[V:4] z8 | 
[V:1] A4G4 | 
[V:2] z8 | 
[V:3] d4e4 | 
[V:4] z8 | 
[V:1] c6B2 | 
[V:2] z8 | 
[V:3] c8 | 
[V:4] z8 | 
[V:1] A6G2 | 
[V:2] z8 | 
[V:3] f6e2 | 
[V:4] z8 | 
[V:1] F2EDE4 | 
[V:2] z8 | 
[V:3] d4c4 | 
[V:4] z8 | 
[V:1] D6E2 | 
[V:2] z8 | 
[V:3] f6e2 | 
[V:4] z8 | 
[V:1] F2GAB2A2- | 
[V:2] z8 | 
[V:3] d6c2 | 
[V:4] z8 | 
[V:1] AGG4^F2 | 
[V:2] z8 | 
[V:3] B2AGA4 | 
[V:4] z8 | 
[V:1] G8 ||  
[V:2] z8 ||  
[V:3] G8 ||  
[V:4] z8 ||  
[V:1]  [K:F] [K:clef=treble][M:2/1]z8 | 
[V:2]  [K:F] [K:clef=treble-8][M:2/1]z8 | 
[V:3]  [K:F] [K:clef=treble-8][M:2/1]z8 | 
[V:4]  [K:F] [K:clef=bass][M:2/1]G,4C4 | 
[V:1] z8 | 
[V:2] z8 | 
[V:3] z8 | 
[V:4] B,4G,4 | 
[V:1] z8 | 
[V:2] d4g4 | 
[V:3] z8 | 
[V:4] z2G,4F,E, | 
[V:1] z8 | 
[V:2] f4d4 | 
[V:3] z8 | 
[V:4] D,3E,F,2G,2 | 
[V:1] z8 | 
[V:2] c2d4cB | 
[V:3] z8 | 
[V:4] A,2B,4A,G, | 
[V:1] z8 | 
[V:2] A3Bc2d2 | 
[V:3] z8 | 
[V:4] F,3G,A,2B,2 | 
[V:1] z8 | 
[V:2] e2f3ga2- | 
[V:3] z8 | 
[V:4] C2D4CB, | 
[V:1] z8 | 
[V:2] agf2e2d2 | 
[V:3] z8 | 
[V:4] A,2B,2C2D2- | 
[V:1] z8 | 
[V:2] e4z2d2- | 
[V:3] z8 | 
[V:4] D2^C2D4 | 
[V:1] z8 | 
[V:2] d2B2c2A2- | 
[V:3] z8 | 
[V:4] G,4A,4 | 
[V:1] z8 | 
[V:2] A2d3ef2- | 
[V:3] z8 | 
[V:4] F,4B,4 | 
[V:1] z8 | 
[V:2] fec2B2d2- | 
[V:3] z8 | 
[V:4] A,4G,4 | 
[V:1] z8 | 
[V:2] dcA2G2d2- | 
[V:3] z8 | 
[V:4] F,4B,4- | 
[V:1] z8 | 
[V:2] def3dg2- | 
[V:3] z8 | 
[V:4] B,2A,2B,4 | 
[V:1] z8 | 
[V:2] gea3gfe | 
[V:3] z8 | 
[V:4] C4A,2D2- | 
[V:1] z8 | 
[V:2] f2d4g2- | 
[V:3] z8 | 
[V:4] DCB,A,G,4 | 
[V:1] z8 ||  
[V:2] g2^f2g4 ||  
[V:3] z8 ||  
[V:4] A,4G,4 ||  



